src/assets/svg/icons/fa/nuevos/classic/light/road-circle-xmark classic light.svg

<svg xmlns="http://www.w3.org/2000/svg" viewBox="0 0 640 512"><!--! Font Awesome Pro 6.4.0 by @fontawesome - https://fontawesome.com License - https://fontawesome.com/license (Commercial License) Copyright 2023 Fonticons, Inc. --><path d="M157.5 74c9.2-25.2 33.2-42 60.1-42H422.4c26.9 0 50.9 16.8 60.1 42l44.1 120.6c-9.9-1.7-20.2-2.7-30.6-2.7c-1.5 0-2.9 0-4.4 .1L452.5 85c-4.6-12.6-16.6-21-30.1-21H336v48c0 8.8-7.2 16-16 16s-16-7.2-16-16V64H217.6c-13.4 0-25.4 8.4-30.1 21L70.6 405c-7.6 20.9 7.8 43 30.1 43H339.2c5.9 11.4 12.9 22.2 21 32H100.6c-44.5 0-75.4-44.2-60.1-86L157.5 74zM336 208v86.6c-3.5 7.6-6.5 15.6-8.9 23.8c-2.1 1.1-4.6 1.7-7.1 1.7c-8.8 0-16-7.2-16-16V208c0-8.8 7.2-16 16-16s16 7.2 16 16zM608 368a112 112 0 1 0 -224 0 112 112 0 1 0 224 0zm-256 0a144 144 0 1 1 288 0 144 144 0 1 1 -288 0zm166.6 0l36.7 36.7c6.2 6.2 6.2 16.4 0 22.6s-16.4 6.2-22.6 0L496 390.6l-36.7 36.7c-6.2 6.2-16.4 6.2-22.6 0s-6.2-16.4 0-22.6L473.4 368l-36.7-36.7c-6.2-6.2-6.2-16.4 0-22.6s16.4-6.2 22.6 0L496 345.4l36.7-36.7c6.2-6.2 16.4-6.2 22.6 0s6.2 16.4 0 22.6L518.6 368z"/></svg>

<svg xmlns="http://www.w3.org/2000/svg" viewBox="0 0 640 512"><path d="M157.5 74.04C166.7 48.79 190.7 32 217.6 32H422.4C449.3 32 473.3 48.79 482.5 74.04L526.6 194.7C516.7 192.9 506.4 192 496 192C494.5 192 493.1 192 491.6 192.1L452.5 85.02C447.9 72.4 435.9 64 422.4 64H336V112C336 120.8 328.8 128 320 128C311.2 128 304 120.8 304 112V64H217.6C204.1 64 192.1 72.4 187.5 85.02L70.59 405C62.96 425.9 78.41 448 100.6 448H339.2C345 459.4 352.1 470.2 360.2 480H100.6C56.19 480 25.27 435.8 40.53 394L157.5 74.04zM336 208V294.6C332.5 302.2 329.5 310.2 327.1 318.3C324.1 319.4 322.6 319.1 320 319.1C311.2 319.1 304 312.8 304 303.1V207.1C304 199.2 311.2 191.1 320 191.1C328.8 191.1 336 199.2 336 207.1V208zM555.3 404.7C561.6 410.9 561.6 421.1 555.3 427.3C549.1 433.6 538.9 433.6 532.7 427.3L496 390.6L459.3 427.3C453.1 433.6 442.9 433.6 436.7 427.3C430.4 421.1 430.4 410.9 436.7 404.7L473.4 368L436.7 331.3C430.4 325.1 430.4 314.9 436.7 308.7C442.9 302.4 453.1 302.4 459.3 308.7L496 345.4L532.7 308.7C538.9 302.4 549.1 302.4 555.3 308.7C561.6 314.9 561.6 325.1 555.3 331.3L518.6 368L555.3 404.7zM640 368C640 447.5 575.5 512 496 512C416.5 512 352 447.5 352 368C352 288.5 416.5 224 496 224C575.5 224 640 288.5 640 368zM496 256C434.1 256 384 306.1 384 368C384 429.9 434.1 480 496 480C557.9 480 608 429.9 608 368C608 306.1 557.9 256 496 256z"/></svg>
